src/xmb/monochrome/VTech - CreatiVision-content.svg

<svg xmlns="http://www.w3.org/2000/svg" xml:space="preserve" width="64" height="64"><path d="M0 0h-34v7l2 8h30l2-8zm0-10h-34v2H0zm4 22v3.069L3 16h-40l-1-.931V12h1v-1h-1v-1h1V9h-1V8h1V7h-1V6h1V5h-1V4h1V3l-1-.035v-40.034l1-.931H3l1 .931V2.965L3 3v1h1v1H3v1h1v1H3v1h1v1H3v1h1v1H3v1z" style="fill:#fff;fill-opacity:1;fill-rule:nonzero;stroke:none" transform="matrix(1 0 0 -1 49 21)"/><path d="M0 0h32v6l-2 7H2L0 6z" style="fill:#fff;fill-opacity:1;fill-rule:nonzero;stroke:none" transform="matrix(1 0 0 -1 16 20)"/></svg>

<?xml version="1.0" encoding="UTF-8" standalone="no"?>
<!-- Created with Inkscape (http://www.inkscape.org/) -->

<svg
   xmlns:dc="http://purl.org/dc/elements/1.1/"
   xmlns:cc="http://creativecommons.org/ns#"
   xmlns:rdf="http://www.w3.org/1999/02/22-rdf-syntax-ns#"
   xmlns:svg="http://www.w3.org/2000/svg"
   xmlns="http://www.w3.org/2000/svg"
   xmlns:sodipodi="http://sodipodi.sourceforge.net/DTD/sodipodi-0.dtd"
   xmlns:inkscape="http://www.inkscape.org/namespaces/inkscape"
   id="svg6178"
   version="1.1"
   inkscape:version="0.48.5 r10040"
   width="64"
   height="64"
   xml:space="preserve"
   sodipodi:docname="VTech - CreatiVision-content.svg"
   inkscape:export-filename="/Users/margetts/Desktop/Icon Workshop/Monochrome July/VTech - CreatiVision-content.png"
   inkscape:export-xdpi="360"
   inkscape:export-ydpi="360"><metadata
     id="metadata6184"><rdf:RDF><cc:Work
         rdf:about=""><dc:format>image/svg+xml</dc:format><dc:type
           rdf:resource="http://purl.org/dc/dcmitype/StillImage" /><dc:title></dc:title></cc:Work></rdf:RDF></metadata><defs
     id="defs6182" /><sodipodi:namedview
     pagecolor="#808080"
     bordercolor="#666666"
     borderopacity="1"
     objecttolerance="10"
     gridtolerance="10"
     guidetolerance="10"
     inkscape:pageopacity="0"
     inkscape:pageshadow="2"
     inkscape:window-width="1676"
     inkscape:window-height="1005"
     id="namedview6180"
     showgrid="false"
     inkscape:zoom="10.4375"
     inkscape:cx="27.976048"
     inkscape:cy="40"
     inkscape:window-x="4"
     inkscape:window-y="1"
     inkscape:window-maximized="1"
     inkscape:current-layer="g6186" /><g
     id="g6186"
     inkscape:groupmode="layer"
     inkscape:label="VTech - CreatiVision-content"
     transform="matrix(1.25,0,0,-1.25,0,64)"><g
       id="g6196"
       transform="scale(0.8,0.8)"><g
         transform="translate(49,43)"
         id="g6188"><path
           inkscape:connector-curvature="0"
           id="path6190"
           style="fill:#ffffff;fill-opacity:1;fill-rule:nonzero;stroke:none"
           d="m 0,0 -34,0 0,7 2,8 30,0 2,-8 0,-7 z m 0,-10 -34,0 0,2 34,0 0,-2 z M 4,12 4,15.069 3,16 l -40,0 -1,-0.931 0,-3.069 1,0 0,-1 -1,0 0,-1 1,0 0,-1 -1,0 0,-1 1,0 0,-1 -1,0 0,-1 1,0 0,-1 -1,0 0,-1 1,0 0,-1 -1,-0.035 0,-40.034 1,-0.931 40,0 1,0.931 L 4,2.965 3,3 3,4 4,4 4,5 3,5 3,6 4,6 4,7 3,7 3,8 4,8 4,9 3,9 l 0,1 1,0 0,1 -1,0 0,1 1,0 z" /></g><g
         transform="translate(16,44)"
         id="g6192"><path
           inkscape:connector-curvature="0"
           id="path6194"
           style="fill:#ffffff;fill-opacity:1;fill-rule:nonzero;stroke:none"
           d="M 0,0 32,0 32,6 30,13 2,13 0,6 0,0 z" /></g></g></g></svg>
